!!!COA:	Josquin des Prez
!!!CDT:	~1450-1521/08/27
!!!COA2: Bauldeweyn
!!!COA3: Mouton
!!!OPR:	Missa Da pacem
!!!ONM:	5
!!!OTL:	Agnus Dei
!!!AGN:	Mass; Agnus Dei
!!!SCT:	NJE 3.2
!!!SCA:	New Josquin Edition 3.2
!!!voices: 4
!!!voices-OPR:	4
**kern	**kern	**kern	**kern	**kern	**kern
*staff6	*staff5	*staff4	*staff3	*staff2	*staff1
*Ivox	*Ivox	*Ivox	*Ivox	*Ivox	*Ivox
*I"Bassus2	*I"Bassus1	*I"Tenor	*I"Altus	*I"Superius2	*I"Superius1
*I'B2	*I'B1	*I'T	*I'A	*I'S2	*I'S1
*>A	*>A	*>A	*>A	*>A	*>A
*clefF4	*clefF4	*clefGv2	*clefGv2	*clefG2	*clefG2
*k[b-]	*k[b-]	*k[b-]	*k[b-]	*k[b-]	*k[b-]
*M3/1	*M3/1	*M3/1	*M3/1	*M3/1	*M3/1
*met(O)	*met(O)	*met(O)	*met(O)	*met(O)	*met(O)
!!section: Agnus Dei I
!!!OMD: Agnus Dei I
=1-	=1-	=1-	=1-	=1-	=1-
0.r	0.r	0.r	0G	0.r	0.r
.	.	.	1F	.	.
=2	=2	=2	=2	=2	=2
0.r	0.r	0.r	2.G/	0.r	0g
.	.	.	4A/	.	.
.	.	.	2B-\	.	.
.	.	.	2G/	.	.
.	.	.	1A	.	1f
=3	=3	=3	=3	=3	=3
0.r	0.r	0G	4G/	0.r	2.g/
.	.	.	4A/	.	.
.	.	.	4B-\	.	.
.	.	.	4c\	.	4a/
.	.	.	2d\	.	2b-\
.	.	.	2e\	.	2g/
.	.	1F	2f\	.	1a
.	.	.	[2d\	.	.
=4	=4	=4	=4	=4	=4
0.r	0.r	2.G/	2d\]	0.r	1g
.	.	.	2e\	.	.
.	.	4A/	.	.	.
.	.	2B-\	2d\	.	1r
.	.	2G/	1g	.	.
.	.	1A	.	.	1cc
.	.	.	2f#i\	.	.
=5	=5	=5	=5	=5	=5
0.r	0.r	1G	1g	0.r	1b-
.	.	2F/	1d	.	2a/
.	.	1G	.	.	1b-
.	.	.	[1d	.	.
.	.	4F/	.	.	4a/
.	.	4E/	.	.	4g/
=6	=6	=6	=6	=6	=6
0.r	0D	1D	2d\]	0.r	1.f
.	.	.	4c\	.	.
.	.	.	4B-\	.	.
.	.	1F	2A/	.	.
.	.	.	2B-\	.	4e/
.	.	.	.	.	4d/
.	1C	1G	1c	.	1e
=7	=7	=7	=7	=7	=7
0.r	2.D\	2.F/	1A	0.r	0d
.	4E\	4G/	.	.	.
.	2F\	2A/	2r	.	.
.	2D\	1B-	1d	.	.
.	1E-i	.	.	.	2r
.	.	2G/	2c\	.	[2g/
=8	=8	=8	=8	=8	=8
0.r	1D	1A	1d	0.r	2g/]
.	.	.	.	.	2f/
.	1r	1B-	2d\	.	2g/
.	.	.	2.g\	.	1b-
.	1F	1c	.	.	.
.	.	.	4f\	.	.
.	.	.	[2f\	.	2a/
=9	=9	=9	=9	=9	=9
0.r	1G	1B-	4f\]	0.r	1b-
.	.	.	4e\	.	.
.	.	.	4e\	.	.
.	.	.	4d\	.	.
.	1F	1A	1f	.	1cc
.	1r	1B-	[1g	.	[1b-
=10	=10	=10	=10	=10	=10
0.r	1E-	0c	1g]	0.r	2b-\]
.	.	.	.	.	4a/
.	.	.	.	.	4g/
.	1F	.	1f	.	1a
.	1G	2B-\	2d\	.	1b-
.	.	2G/	[2e-i\	.	.
=11	=11	=11	=11	=11	=11
0.r	2F\	1A	4e-\]	0.r	2a/
.	.	.	4d\	.	.
.	2D\	.	1d	.	2f/
.	1E-i	2.G/	.	.	1g
.	.	.	2c\	.	.
.	.	4A/	.	.	.
.	2D\	2B-\	2d\	.	2f/
.	2C/	2c\	[2e-i\	.	2cc\
=12	=12	=12	=12	=12	=12
0.r	1D	1F	4e-\]	0.r	2b-\
.	.	.	4d\	.	.
.	.	.	1d	.	2.a/
.	1E-i	1G	.	.	.
.	.	.	.	.	4g/
.	.	.	2c\	.	1g
.	1D	1A	1d	.	.
.	.	.	.	.	2f#i/
=13	=13	=13	=13	=13	=13
0.r	1r	0G	1r	0.r	0g
.	1r	.	1d	.	.
.	1F	1r	2c\	.	1r
.	.	.	[2d\	.	.
=14	=14	=14	=14	=14	=14
0.r	2F\	0.r	2d\]	0.r	0.r
.	1F	.	4c\	.	.
.	.	.	4B-\	.	.
.	.	.	2A/	.	.
.	4E\	.	2.c\	.	.
.	4D\	.	.	.	.
.	1E	.	.	.	.
.	.	.	4B-\	.	.
.	.	.	4A/	.	.
.	.	.	4G/	.	.
=15	=15	=15	=15	=15	=15
0.r	1D	1r	1F	0.r	1r
.	1r	1B-	1r	.	1g
.	1r	1B-	1r	.	2f/
.	.	.	.	.	[2g/
=16	=16	=16	=16	=16	=16
0.r	0.r	1.B-	0.r	0.r	2g/]
.	.	.	.	.	4f/
.	.	.	.	.	4e/
.	.	.	.	.	2d/
.	.	4A/	.	.	2.f/
.	.	4G/	.	.	.
.	.	1A	.	.	.
.	.	.	.	.	4e/
.	.	.	.	.	4d/
.	.	.	.	.	4c/
=17	=17	=17	=17	=17	=17
0.r	2r	2G/	1.d	0.r	2B-/
.	2BB-/	1B-	.	.	1d
.	2.BB-/	.	.	.	.
.	.	4A/	4c\	.	2e/
.	4C/	4G/	4B-\	.	.
.	2D\	2F/	2A/	.	2f/
.	2C/	2E/	[2e\	.	2g/
=18	=18	=18	=18	=18	=18
0.r	1D	1F	4e\]	0.r	2f/
.	.	.	4d\	.	.
.	.	.	1d	.	1b-
.	1E-i	1G	.	.	.
.	.	.	2c\	.	4a/
.	.	.	.	.	4g/
.	1D	1A	1d	.	1f
=19	=19	=19	=19	=19	=19
0.r	1r	2r	1.d	0.r	2.g/
.	.	2B-\	.	.	.
.	.	.	.	.	4f/
.	1G	2.B-\	.	.	2.d/
.	.	.	4c\	.	.
.	.	4c\	4B-\	.	4e/
.	2.F\	2d\	[1A	.	4f/
.	.	.	.	.	4g/
.	.	2c\	.	.	2a/
.	4E\	.	.	.	.
=20	=20	=20	=20	=20	=20
0.r	2D\	2d\	1A]	0.r	2f/
.	2C/	2.e\	.	.	2a/
.	1BB-	.	1r	.	4g/
.	.	4d\	.	.	4f/
.	.	1d	.	.	4e/
.	.	.	.	.	4d/
.	1AA	.	1A	.	1e
.	.	2c#i\	.	.	.
=21	=21	=21	=21	=21	=21
0.r	1D	0d	2F/	0.r	4d/
.	.	.	.	.	4e/
.	.	.	1A	.	4f/
.	.	.	.	.	4g/
.	1D	.	.	.	4a/
.	.	.	.	.	4f/
.	.	.	4G/	.	1b-
.	.	.	4F/	.	.
.	1C	1r	2G/	.	.
.	.	.	2E/	.	2a/
=22	=22	=22	=22	=22	=22
0.r	1BB-	0.r	4D/	0.r	4b-\
.	.	.	4E/	.	4a/
.	.	.	4F/	.	4g/
.	.	.	4G/	.	4f/
.	0C	.	4A/	.	2e-i/
.	.	.	4F/	.	.
.	.	.	1B-	.	2d/
.	.	.	.	.	1e-i
.	.	.	2A/	.	.
=23	=23	=23	=23	=23	=23
0.r	1BB-	1d	4B-\	0.r	4d/
.	.	.	4c\	.	4e/
.	.	.	4d\	.	4f/
.	.	.	4e\	.	4g/
.	2r	1d	1f	.	4a/
.	.	.	.	.	4f/
.	2D\	.	.	.	1b-
.	2E-i\	1c	2g\	.	.
.	2F\	.	2f\	.	2a/
=24	=24	=24	=24	=24	=24
0.r	1G	1B-	1d	0.r	2b-\
.	.	.	.	.	2dd\
.	1E-i	0c	1g	.	2cc\
.	.	.	.	.	1b-
.	1F	.	[1f	.	.
.	.	.	.	.	2a/
=25	=25	=25	=25	=25	=25
0.r	1BB-	1B-	2f\]	0.r	1.b-
.	.	.	2e-i\	.	.
.	1r	1r	2d\	.	.
.	.	.	2e-\	.	2g/
.	2F\	1r	2c\	.	2a/
.	2F\	.	2d\	.	2f/
=26	=26	=26	=26	=26	=26
0.r	2E-\	1r	2G/	0.r	2g/
.	2F\	.	2c\	.	2a/
.	1G	2B-\	4B-\	.	1d
.	.	.	4c\	.	.
.	.	2B-\	4d\	.	.
.	.	.	4e\	.	.
.	2F\	2.A/	1f	.	1a
.	2D\	.	.	.	.
.	.	4B-\	.	.	.
=27	=27	=27	=27	=27	=27
0.r	1E-i	1c	2e-i\	0.r	2g/
.	.	.	2c\	.	2e-i/
.	1r	2B-\	2d\	.	2f/
.	.	2G/	2B-\	.	2g/
.	2F\	1A	2c\	.	2c/
.	2F\	.	2d\	.	2f/
=28	=28	=28	=28	=28	=28
0.r	2E-i\	1r	2G/	0.r	2g/
.	2F\	.	2c\	.	2a/
.	1G	2B-\	2B-\	.	2.d/
.	.	2B-\	2G/	.	.
.	.	.	.	.	4e/
.	2F\	2.A/	1c	.	4f/
.	.	.	.	.	4g/
.	4E-i\	.	.	.	[2a/
.	4D\	4B-\	.	.	.
=29	=29	=29	=29	=29	=29
0.r	1E-i	1c	1c	0.r	4a/]
.	.	.	.	.	4g/
.	.	.	.	.	1g
.	0D	2B-\	[0dl	.	.
.	.	4A/	.	.	4f#i/
.	.	4G/	.	.	4e/
.	.	1A	.	.	1f#i
=30	=30	=30	=30	=30	=30
0.r	0.GGl	0.Gl	0.d]	0.r	0.gl
!!LO:LB:i:g=z
=31||	=31||	=31||	=31||	=31||	=31||
*>B	*>B	*>B	*>B	*>B	*>B
*clefF4	*clefF4	*clefGv2	*clefGv2	*clefG2	*clefG2
*k[b-]	*k[b-]	*k[b-]	*k[b-]	*k[b-]	*k[b-]
*M2/1	*M2/1	*M2/1	*M2/1	*M2/1	*M2/1
*met(C|)	*met(C|)	*met(C|)	*met(C|)	*met(C|)	*met(C|)
!!!OMD: Agnus Dei II
!!section: Agnus Dei II
!	!	!LO:TX:Z=12:t=Canon&colon; Agnus Primum sequitur Bassum post tria [sic] tempora [B-->T Canon at the upper fourth]	!	!	!
0r	0r	0r	0d	0r	0r
=32	=32	=32	=32	=32	=32
0r	0r	0r	0c	0r	0g
=33	=33	=33	=33	=33	=33
0r	0D	0r	0d	0r	0f
=34	=34	=34	=34	=34	=34
0r	0C	0G	0e	0r	0g
=35	=35	=35	=35	=35	=35
0r	0D	0F	1d	0r	0r
.	.	.	1f	.	.
=36	=36	=36	=36	=36	=36
0r	0r	0G	2e\	0r	0b-
.	.	.	4d\	.	.
.	.	.	4c\	.	.
.	.	.	1d	.	.
=37	=37	=37	=37	=37	=37
0r	0F	0r	2c\	0r	0cc
.	.	.	1f	.	.
.	.	.	4e\	.	.
.	.	.	4d\	.	.
=38	=38	=38	=38	=38	=38
0r	0G	0B-	2e\	0r	1.b-
.	.	.	1f	.	.
.	.	.	2e\	.	4a/
.	.	.	.	.	4g/
=39	=39	=39	=39	=39	=39
0r	0F	0c	0f	0r	2a/
.	.	.	.	.	1b-
.	.	.	.	.	2a/
=40	=40	=40	=40	=40	=40
0r	0r	0B-	1.d	0r	0b-
.	.	.	4c\	.	.
.	.	.	4B-\	.	.
=41	=41	=41	=41	=41	=41
0r	0E	0r	2c\	0r	1r
.	.	.	1G	.	.
.	.	.	.	.	2r
.	.	.	[2c\	.	2g/
=42	=42	=42	=42	=42	=42
0r	0F	0A	2c\]	0r	2a/
.	.	.	2d\	.	2b-\
.	.	.	2c\	.	1cc
.	.	.	2f\	.	.
=43	=43	=43	=43	=43	=43
0r	0G	0B-	2.d\	0r	2b-\
.	.	.	.	.	2g/
.	.	.	4B-\	.	.
.	.	.	2d\	.	1b-
.	.	.	2e\	.	.
=44	=44	=44	=44	=44	=44
0r	1F	0c	2f\	0r	2r
.	.	.	2F/	.	2.a/
.	1E	.	4G/	.	.
.	.	.	4A/	.	4g/
.	.	.	4B-\	.	[2g/
.	.	.	4c\	.	.
=45	=45	=45	=45	=45	=45
0r	1D	1B-	0d	0r	2g/]
.	.	.	.	.	4f#i/
.	.	.	.	.	4e/
.	1D	1A	.	.	1f#i
=46	=46	=46	=46	=46	=46
0r	0r	1G	1d	0r	1g
.	.	1G	1e	.	2r
.	.	.	.	.	2g/
=47	=47	=47	=47	=47	=47
0r	1F	0r	1d	0r	2a/
.	.	.	.	.	2b-\
.	1F	.	1c	.	2cc\
.	.	.	.	.	2a/
=48	=48	=48	=48	=48	=48
0r	1E-i	1B-	1G	0r	2b-\
.	.	.	.	.	4a/
.	.	.	.	.	4g/
.	1D	1B-	2r	.	2f/
.	.	.	2d\	.	2g/
=49	=49	=49	=49	=49	=49
0r	0r	1A	2e\	0r	1a
.	.	.	2f\	.	.
.	.	1G	2g\	.	2b-\
.	.	.	2e\	.	2g/
=50	=50	=50	=50	=50	=50
0r	0F	0r	2f\	0r	1a
.	.	.	4e\	.	.
.	.	.	4d\	.	.
.	.	.	2c\	.	2r
.	.	.	[2d\	.	2a/
=51	=51	=51	=51	=51	=51
0r	0G	0B-	2d\]	0r	2b-\
.	.	.	2e\	.	2cc\
.	.	.	2d\	.	[1dd
.	.	.	[2g\	.	.
=52	=52	=52	=52	=52	=52
0r	0A	0c	2g\]	0r	2dd\]
.	.	.	2e\	.	2cc\
.	.	.	1f	.	[1cc
=53	=53	=53	=53	=53	=53
0r	0G	0d	0g	0r	2cc\]
.	.	.	.	.	4bni\
.	.	.	.	.	4a/
.	.	.	.	.	1bni
=54	=54	=54	=54	=54	=54
0r	0A	0c	0e	0r	0cc
=55	=55	=55	=55	=55	=55
0r	0B-	0d	0r	0r	1dd
.	.	.	.	.	2dd\
.	.	.	.	.	[2dd\
=56	=56	=56	=56	=56	=56
0r	0A	0e	0c	0r	2dd\]
.	.	.	.	.	4cc\
.	.	.	.	.	4b-\
.	.	.	.	.	1cc
=57	=57	=57	=57	=57	=57
0r	0r	0d	0f	0r	2.dd\
.	.	.	.	.	8cc\L
.	.	.	.	.	8b-\J
.	.	.	.	.	2.a/
.	.	.	.	.	4g/
=58	=58	=58	=58	=58	=58
0r	1A	0r	1e	0r	4a/
.	.	.	.	.	4b-\
.	.	.	.	.	1cc
.	1A	.	1c	.	.
.	.	.	.	.	4b-\
.	.	.	.	.	4a/
=59	=59	=59	=59	=59	=59
0r	0G	1d	1g	0r	2b-\
.	.	.	.	.	1cc
.	.	1d	2r	.	.
.	.	.	[2g\	.	2b-\
=60	=60	=60	=60	=60	=60
0r	0r	0c	4g\]	0r	1cc
.	.	.	4f\	.	.
.	.	.	4e\	.	.
.	.	.	4d\	.	.
.	.	.	4e\	.	4cc\
.	.	.	4d\	.	4b-\
.	.	.	4c\	.	4a/
.	.	.	4B-\	.	4g/
=61	=61	=61	=61	=61	=61
0r	0F	0r	4c\	0r	4a/
.	.	.	4B-\	.	4g/
.	.	.	4A/	.	4f/
.	.	.	4G/	.	4e/
.	.	.	1A	.	1f
=62	=62	=62	=62	=62	=62
0r	0E-i	0B-	1G	0r	0g
.	.	.	[1g	.	.
=63	=63	=63	=63	=63	=63
0r	0F	0A	2g\]	0r	1a
.	.	.	2f\	.	.
.	.	.	[1f	.	[1cc
=64	=64	=64	=64	=64	=64
0r	0G	0B-	2f\]	0r	2cc\]
.	.	.	4e\	.	2b-\
.	.	.	4d\	.	.
.	.	.	1e	.	[1b-
=65	=65	=65	=65	=65	=65
0r	0F	0c	0f	0r	2b-\]
.	.	.	.	.	4a/
.	.	.	.	.	4g/
.	.	.	.	.	1a
=66	=66	=66	=66	=66	=66
0r	0r	0B-	1.d	0r	2b-\
.	.	.	.	.	4a/
.	.	.	.	.	4g/
.	.	.	.	.	2f/
.	.	.	2e\	.	2g/
=67	=67	=67	=67	=67	=67
0r	2F\	0r	2f\	0r	2a/
.	2F\	.	2d\	.	2f/
.	2E\	.	2e\	.	2g/
.	2F\	.	2c\	.	2a/
=68	=68	=68	=68	=68	=68
0r	1G	2B-\	2r	0r	2b-\
.	.	2B-\	2e\	.	2g/
.	2F\	2A/	2f\	.	2cc\
.	2G\	2B-\	2d\	.	2b-\
=69	=69	=69	=69	=69	=69
0r	2E\	1c	2e\	0r	2g/
.	2F\	.	2c\	.	2a/
.	2G\	2B-\	1g	.	2b-\
.	2E\	2c\	.	.	2g/
=70	=70	=70	=70	=70	=70
0r	2F\	2A/	0c	0r	2a/
.	2E\	2B-\	.	.	4g/
.	.	.	.	.	4f/
.	1C	2c\	.	.	1e
.	.	2A/	.	.	.
=71	=71	=71	=71	=71	=71
0r	0D	2B-\	1.f	0r	1d
.	.	2A/	.	.	.
.	.	1F	.	.	[1a
.	.	.	4e\	.	.
.	.	.	4d\	.	.
=72	=72	=72	=72	=72	=72
0r	0E	0G	2c\	0r	2a/]
.	.	.	1d	.	2g/
.	.	.	.	.	[1g
.	.	.	2c\	.	.
=73	=73	=73	=73	=73	=73
0r	0D	0A	0d	0r	2g/]
.	.	.	.	.	4f/
.	.	.	.	.	4e/
.	.	.	.	.	4f/
.	.	.	.	.	4e/
.	.	.	.	.	4d/
.	.	.	.	.	4c/
=74	=74	=74	=74	=74	=74
0r	0r	0G	2r	0r	2B-/
.	.	.	1d	.	1b-
.	.	.	2e\	.	2g/
=75	=75	=75	=75	=75	=75
0r	2F\	0r	2f\	0r	2a/
.	2F\	.	2d\	.	2f/
.	2E\	.	2e\	.	2g/
.	2F\	.	2c\	.	2a/
=76	=76	=76	=76	=76	=76
0r	1G	2B-\	2r	0r	2b-\
.	.	2B-\	2e\	.	2g/
.	2F\	2A/	2f\	.	2cc\
.	2G\	2B-\	2d\	.	2b-\
=77	=77	=77	=77	=77	=77
0r	2E\	1c	2e\	0r	2g/
.	2F\	.	2c\	.	2a/
.	2G\	2B-\	1g	.	2b-\
.	2E\	2c\	.	.	2g/
=78	=78	=78	=78	=78	=78
0r	2F\	2A/	0c	0r	2a/
.	2E\	2B-\	.	.	4g/
.	.	.	.	.	4f/
.	1C	2c\	.	.	1e
.	.	2A/	.	.	.
=79	=79	=79	=79	=79	=79
0r	0D	2B-\	1.f	0r	1d
.	.	2A/	.	.	.
.	.	1F	.	.	[1a
.	.	.	4e\	.	.
.	.	.	4d\	.	.
=80	=80	=80	=80	=80	=80
0r	0E-i	0G	2c\	0r	2a/]
.	.	.	1d	.	2g/
.	.	.	.	.	[1g
.	.	.	2c\	.	.
=81	=81	=81	=81	=81	=81
0r	0D	0A	[0dl	0r	2g/]
.	.	.	.	.	4f#i/
.	.	.	.	.	4e/
.	.	.	.	.	1f#i
=82	=82	=82	=82	=82	=82
0r	0GGl	0Gl	0d]	0r	0gl
!!LO:LB:i:g=z
=83||	=83||	=83||	=83||	=83||	=83||
*>C	*>C	*>C	*>C	*>C	*>C
*clefF4	*clefF4	*clefGv2	*clefGv2	*clefG2	*clefG2
*k[b-]	*k[b-]	*k[b-]	*k[b-]	*k[b-]	*k[b-]
*M2/1	*M2/1	*M2/1	*M2/1	*M2/1	*M2/1
*met(C|)	*met(C|)	*met(C|)	*met(C|)	*met(C|)	*met(C|)
!!!OMD: Agnus Dei III
!!section: Agnus Dei III
!	!	!	!	!LO:TX:Z=10:t=3-ex-1 canon at the lower 15th/8ve [SII-->BII->T]	!
0r	0r	0r	0r	0g	2.g/
.	.	.	.	.	4a/
.	.	.	.	.	4b-\
.	.	.	.	.	4cc\
.	.	.	.	.	[2dd\
=84	=84	=84	=84	=84	=84
0r	0r	0r	0r	0f	2dd\]
.	.	.	.	.	4cc\
.	.	.	.	.	4b-\
.	.	.	.	.	1a
=85	=85	=85	=85	=85	=85
0GG	0r	0r	2.G/	0g	1g
.	.	.	4A/	.	.
.	.	.	4B-\	.	2r
.	.	.	4c\	.	.
.	.	.	[2d\	.	2g/
=86	=86	=86	=86	=86	=86
0FF	0r	0r	2d\]	0r	2a/
.	.	.	4c\	.	2b-\
.	.	.	4B-\	.	.
.	.	.	1A	.	2cc\
.	.	.	.	.	2a/
=87	=87	=87	=87	=87	=87
0GG	2.GG/	0G	4G/	0b-	4b-\
.	.	.	4A/	.	4a/
.	.	.	4B-\	.	4g/
.	4AA/	.	4c\	.	4f/
.	4BB-/	.	[1d	.	2g/
.	4C/	.	.	.	.
.	[2D\	.	.	.	2d/
=88	=88	=88	=88	=88	=88
0r	2D\]	0F	2d\]	0cc	2f/
.	4C/	.	2e\	.	2g/
.	4BB-/	.	.	.	.
.	1AA	.	1f	.	1a
=89	=89	=89	=89	=89	=89
0BB-	1GG	0G	2B-\	0b-	0d
.	.	.	1d	.	.
.	1D	.	.	.	.
.	.	.	2d\	.	.
=90	=90	=90	=90	=90	=90
0C	0E	0r	0c	0r	1.g
.	.	.	.	.	2a/
=91	=91	=91	=91	=91	=91
0BB-	2D\	0B-	1.d	0r	2b-\
.	1F	.	.	.	4a/
.	.	.	.	.	4g/
.	.	.	.	.	2.f/
.	4E\	.	2B-\	.	.
.	4D\	.	.	.	4g/
=92	=92	=92	=92	=92	=92
0r	4C/	0c	1.e-	0a	2a/
.	4BB-/	.	.	.	.
.	4AA/	.	.	.	1g
.	4GG/	.	.	.	.
.	1AA	.	.	.	.
.	.	.	2c\	.	2f#i/
=93	=93	=93	=93	=93	=93
0r	2GG/	0B-	1.d	0b-	0g
.	2.G\	.	.	.	.
.	4F\	.	.	.	.
.	4E-i\	.	[2e-i\	.	.
.	4D\	.	.	.	.
=94	=94	=94	=94	=94	=94
0AA	2C/	0r	4e-\]	0cc	0a
.	.	.	4d\	.	.
.	2D\	.	4c\	.	.
.	.	.	4B-\	.	.
.	1E-i	.	1c	.	.
=95	=95	=95	=95	=95	=95
0BB-	0D	0r	0d	0b-	1f
.	.	.	.	.	2f/
.	.	.	.	.	4e/
.	.	.	.	.	4d/
=96	=96	=96	=96	=96	=96
0C	1AA	0A	0c	0a	1e
.	1FF	.	.	.	1f
=97	=97	=97	=97	=97	=97
0BB-	1GG	0B-	0r	1g	1d
.	[1G	.	.	1g	1r
=98	=98	=98	=98	=98	=98
0AA	2G\]	0c	0r	0r	0a
.	4F#i\	.	.	.	.
.	4E\	.	.	.	.
.	1F#i	.	.	.	.
=99	=99	=99	=99	=99	=99
1GG	1.G	0B-	1.d	0r	1.b-
1GG	.	.	.	.	.
.	4F\	.	2d\	.	4a/
.	4E\	.	.	.	4g/
=100	=100	=100	=100	=100	=100
0r	2F\	0A	2c\	0r	2a/
.	2C/	.	2e-i\	.	1g
.	1D	.	[1d	.	.
.	.	.	.	.	2f/
=101	=101	=101	=101	=101	=101
0r	1GG	1G	2d\]	1b-	1g
.	.	.	1B-	.	.
.	1BB-	1G	.	1b-	1d
.	.	.	4A/	.	.
.	.	.	4G/	.	.
=102	=102	=102	=102	=102	=102
0r	1C	0r	2A/	0a	2c/
.	.	.	1G	.	2e-i/
.	1D	.	.	.	1d
.	.	.	2F#i/	.	.
=103	=103	=103	=103	=103	=103
1BB-	2r	0r	0G	0g	0d
.	1B-	.	.	.	.
1BB-	.	.	.	.	.
.	4A\	.	.	.	.
.	4G\	.	.	.	.
=104	=104	=104	=104	=104	=104
0AA	2A\	0r	1r	0r	0r
.	1G	.	.	.	.
.	.	.	1c	.	.
.	2F\	.	.	.	.
=105	=105	=105	=105	=105	=105
0GG	2G\	1B-	2B-\	0b-	2r
.	4F\	.	4G/	.	1b-
.	4E\	.	4A/	.	.
.	1D	1B-	4B-\	.	.
.	.	.	4c\	.	.
.	.	.	2d\	.	4a/
.	.	.	.	.	4g/
=106	=106	=106	=106	=106	=106
0r	0C	0A	2.e-i\	0cc	2a/
.	.	.	.	.	2.g/
.	.	.	4d\	.	.
.	.	.	2c\	.	.
.	.	.	.	.	4f#i/
.	.	.	2A/	.	4f#i/
.	.	.	.	.	4e/
=107	=107	=107	=107	=107	=107
0BB-	0GG	0G	2B-\	0dd	[0g
.	.	.	2c\	.	.
.	.	.	1d	.	.
=108	=108	=108	=108	=108	=108
0C	1r	0r	2c\	0ee-i	0g]
.	.	.	4B-\	.	.
.	.	.	4A/	.	.
.	1C	.	2.G/	.	.
.	.	.	4A/	.	.
=109	=109	=109	=109	=109	=109
0D	0BB-	0B-	2B-\	0dd	2r
.	.	.	2c\	.	2.d/
.	.	.	1d	.	.
.	.	.	.	.	4e/
.	.	.	.	.	4f/
.	.	.	.	.	4g/
=110	=110	=110	=110	=110	=110
0E	0AA	0c	1r	0r	0a
.	.	.	1A	.	.
=111	=111	=111	=111	=111	=111
0D	0BB-	0d	1F	1dd	2r
.	.	.	.	.	2.d/
.	.	.	1B-	1dd	.
.	.	.	.	.	4e/
.	.	.	.	.	4f/
.	.	.	.	.	4g/
=112	=112	=112	=112	=112	=112
0r	2.AA/	0e	0c	0cc	1a
.	4BB-/	.	.	.	.
.	1C	.	.	.	1g
=113	=113	=113	=113	=113	=113
1D	0GG	0d	4d\	0r	0g
.	.	.	4c\	.	.
.	.	.	4B-\	.	.
.	.	.	4A/	.	.
1D	.	.	4B-\	.	.
.	.	.	4A/	.	.
.	.	.	4G/	.	.
.	.	.	4F/	.	.
=114	=114	=114	=114	=114	=114
0C	0AA	0r	4E/	0a	0r
.	.	.	4D/	.	.
.	.	.	1G	.	.
.	.	.	2F#i/	.	.
=115	=115	=115	=115	=115	=115
0r	0GG	1d	0G	0b-	2r
.	.	.	.	.	1b-
.	.	1d	.	.	.
.	.	.	.	.	4a/
.	.	.	.	.	4g/
=116	=116	=116	=116	=116	=116
0AA	0r	0c	0A	0cc	2f/
.	.	.	.	.	1g
.	.	.	.	.	2f#i/
=117	=117	=117	=117	=117	=117
0BB-	0GG	0r	2r	0b-	0g
.	.	.	1B-	.	.
.	.	.	4A/	.	.
.	.	.	4G/	.	.
=118	=118	=118	=118	=118	=118
0C	0AA	0A	2F/	0r	0r
.	.	.	1G	.	.
.	.	.	2F#i/	.	.
=119	=119	=119	=119	=119	=119
0BB-	0GG	0B-	0G	1b-	2r
.	.	.	.	.	1b-
.	.	.	.	1b-	.
.	.	.	.	.	4a/
.	.	.	.	.	4g/
=120	=120	=120	=120	=120	=120
0r	0r	0c	0A	0a	2f/
.	.	.	.	.	1g
.	.	.	.	.	2f#i/
=121	=121	=121	=121	=121	=121
1BB-	2r	0B-	0G	0b-	0g
.	1B-	.	.	.	.
1BB-	.	.	.	.	.
.	4A\	.	.	.	.
.	4G\	.	.	.	.
=122	=122	=122	=122	=122	=122
0AA	2F\	0r	0r	0cc	0a
.	1G	.	.	.	.
.	2F#i\	.	.	.	.
=123	=123	=123	=123	=123	=123
0BB-	1G	1B-	1.d	1b-	0d
.	1GG	1B-	.	1g	.
.	.	.	2e\	.	.
=124	=124	=124	=124	=124	=124
0C	0FF	0A	1f	0a	0r
.	.	.	2.f\	.	.
.	.	.	4e\	.	.
=125	=125	=125	=125	=125	=125
1BB-	1GG	0B-	4d\	0g	0r
.	.	.	4c\	.	.
.	.	.	1B-	.	.
1GG	[1D	.	.	.	.
.	.	.	4A/	.	.
.	.	.	4G/	.	.
=126	=126	=126	=126	=126	=126
0AA	2D\]	0c	2F/	0r	0a
.	4C/	.	1G	.	.
.	4BB-/	.	.	.	.
.	1C	.	.	.	.
.	.	.	2F#i/	.	.
=127	=127	=127	=127	=127	=127
0GG	1D	1B-	2G/	0r	1.b-
.	.	.	1B-	.	.
.	1E-i	1G	.	.	.
.	.	.	2c\	.	4a/
.	.	.	.	.	4g/
=128	=128	=128	=128	=128	=128
0r	0D	0A	0d	0r	2f/
.	.	.	.	.	1g
.	.	.	.	.	2f#i/
=129	=129	=129	=129	=129	=129
0GGl	0GGl	0Gl	0dl	0gl	0gl
==	==	==	==	==	==
*-	*-	*-	*-	*-	*-
!!!RDF**kern: l=long note in original notation
!!!RDF**kern: i=editorial accidental
!!!ENC:	Victoria Chang 2011/04/27
!!!END:	2011/04/27/
!!!EED:	Jesse Rodin
!!!EEV: 2012/04/24/
!!attribution-level@Jos: 4 (questionable)
!!!ONB:	Translated from MusicXML and edited on 2011/12/26/ by Craig Sapp
!!muse2ps: T^@{OPR}^u^@{ONM}{. }@{OTL}^C^Bauldeweyn/Josquin?/Mouton?\n@{SCT}^i2I100v100,100,100,100,100,150c125Q4
